X: 112
T: Chasing, They Walked
C: Teton Sioux band 1911-1914
N: Derived from sioux112.krn
O: South Dakota, U.S.A.
N: Teton Sioux Music by Frances Densmore, 1918
Z: transcribed to **kern format by Craig Sapp
L: 1/16
M: 2/4
Q: 1/4=58
K: Eb clef=bass
%%linebreak <none>
G4G3 F | 
F2< E2E4 | 
F4F3 F | 
F2< E2E4 | 
(E6F E) ||  
[M:3/4]C2>) C2 C2> C2C4 | 
F2< E2 (E2< C2)B,4 ||  
[M:2/4](B,2> F,2) F,3 F, | 
F,2< E,2E,4 | 
F,4F,3 F, | 
F,2> E,2 E,3 E, | 
E,8 | 
E,8 :|]  



